!!!!SEGMENT: pl-kk--kk-i-382--023-002_anonim--nro-8-gloria.krn
!!!cenid: 18xx:1497
!!!COM: Anonim
!!!COM-rismid: pe30004985
!!!CDT:
!!!CNT:
!!!OPR: Nro 8
!!!OTL: Gloria
!!!OMV: 002
!!!PDT:
!!!AGN: Sacred
!!!SMS-siglum: PL-Kk
!!!SMS-shelfmark: Kk.I.382
!!!SMS-shelfwork: 008-002 M
!!!SMS-variant:
!!!SMS-altvar:
!!!NIFC-rismid: 1001139140
!!!URL-scan: http://repozytorium.nifc.pl/skany/pl-kk-nut--i-382
!!!ONB-nifc: UWAGA: obsada: S/T 1, T 2, A/B 1, B 2. Sanctus, Osanna + Benedictus. S (T 1), A (B 1), T 2, B 2; S (T 1): skan 0022; A (B 1): skan 0168; T 2: skan 0093; B 2: skan 0240
**kern	**text	**kern	**text	**kern	**text	**kern	**text
*part4	*part4	*part3	*part3	*part2	*part2	*part1	*part1
*staff4	*staff4	*staff3	*staff3	*staff2	*staff2	*staff1	*staff1
*I"Basso II	*	*I"Tenore II	*	*I"Alto vel Basso I	*	*I"Soprano vel Tenore I	*
*I'B 2	*	*I'T 2	*	*I'A vel B 1	*	*I'S vel T 1	*
*clefF4	*	*clefC4	*	*clefC3	*	*clefC1	*
*k[]	*	*k[]	*	*k[]	*	*k[]	*
*C:	*	*C:	*	*C:	*	*C:	*
*M3/4	*	*M3/4	*	*M3/4	*	*M3/4	*
=1	=1	=1	=1	=1	=1	=1	=1
!	!	!	!	!	!	!LO:TX:t=P:problem:all\right:global	!
!LO:TX:rj:b:t=Gloria	!	!LO:TX:rj:b:t=Gloria	!	!LO:TX:rj:b:t=Gloria	!	!LO:TX:b:t=Gloria.	!
(4c\	Et	(4c\	Et	(4e\	Et	(4g\	Et
4E\)	.	4e\)	.	4g\)	.	4cc\)	.
4G\	in	4d\	in	4f\	in	4b\	in
=2	=2	=2	=2	=2	=2	=2	=2
*	*	*2\right	*	*2\right	*	*2\right	*
(>4C/	ter-	2c\	ter-	2e\	ter-	2g\	ter-
4E/)	.	.	.	.	.	.	.
4G\	-ra	4B\	-ra	4d\	-ra	4g\	-ra
=3	=3	=3	=3	=3	=3	=3	=3
(>4C/	pax	(8c\L	pax	(8e\L	pax	2g\	pax
.	.	16B\L	.	16d\L	.	.	.
.	.	16c\JJ)	.	16e\JJ)	.	.	.
4BB/)	.	(4d\	ho-	(4f\	ho-	.	.
4C/	ho-	4c\)	.	4e\)	.	4g\	ho-
=4	=4	=4	=4	=4	=4	=4	=4
4.G\	-mi-	4.B\	-mi-	4.d\	-mi-	4.g\	-mi-
8G\	-ni-	8B\	-ni-	8d\	-ni-	8g\	-ni-
4G\	-bus	4B\	-bus	4d\	-bus	4g\	-bus
=5	=5	=5	=5	=5	=5	=5	=5
*2\right	*	*	*	*	*	*	*
2G\	bo-	(4B\	bo-	(4d\	bo-	2g\	bo-
.	.	4c\)	.	4e\)	.	.	.
4G\	-ne	4d\	-ne	4f\	-ne	4b\	-ne
!	!	!	!	!LO:LB:g=original	!	!	!
=6	=6	=6	=6	=6	=6	=6	=6
(>4C/	vo-	(4c\	vo-	(4e\	bo-	4g\	vo-
4BB/)	.	4f\)	.	4a\)	.	2cc\	-lun-
4C/	-lun-	4e\	-lun-	4g\	-lun-	.	.
!LO:LB:g=original	!	!LO:LB:g=original	!	!	!	!LO:LB:g=original	!
=7	=7	=7	=7	=7	=7	=7	=7
(4F\	ta-	(4d\	-ta-	(4f\	-ta-	(4a\	-ta-
4G\	.	4c\	.	4e\	.	2g\)	.
4GG/)	.	4B\)	.	4d\)	.	.	.
=8	=8	=8	=8	=8	=8	=8	=8
4C/	-tis	4c\	-tis	4e\	-tis,	2g\	-tis
4r	.	4r	.	4r	.	.	.
4r	.	(8c\L	lau-	(8e\L	lau-	4r	.
.	.	8d\J)	.	8f\J)	.	.	.
=9	=9	=9	=9	=9	=9	=9	=9
4C/	Lau-	2e\	-da-	2g\	-da-	4cc\	Lau-
4E\	-da-	.	.	.	.	4cc\	-da-
4G\	-mus	4d\	-mus	4f\	-mus	4b\	-mus
=10	=10	=10	=10	=10	=10	=10	=10
4C/	te	4c\	te	4e\	te	4g\	te
4r	.	4c\	be-	4e\	be-	4r	.
4r	.	(8c\L	-ne-	(8e\L	-ne-	4r	.
.	.	8d\J)	.	8f\J)	.	.	.
=11	=11	=11	=11	=11	=11	=11	=11
8C/	be-	2e\	-di-	2g\	-di-	8g\	be-
8C/	-ne-	.	.	.	.	8g\	-ne-
4E\	-di-	.	.	.	.	4cc\	-di-
8G\	-ci-	8d\	-ci-	8f\	-ci-	8b\	-ci-
8G\	-mus	8d\	-mus	8f\	-mus	8b\	-mus
!	!	!	!	!LO:TX:b:t=V&colon;S&colon;	!	!	!
!	!	!	!	!LO:PB:g=original	!	!	!
=12	=12	=12	=12	=12	=12	=12	=12
4C/	te	4c\	te	4e\	te	4g\	te
4G\	a-	(8B\L	a-	(8d\L	a-	(8dd\L	a-
.	.	8d\J)	.	8f\J)	.	8b\J)	.
4G\	-do-	(8c\L	-do-	(8e\L	-do-	4cc\	-do-
.	.	8e\J)	.	8g\J)	.	.	.
!LO:LB:g=original	!	!LO:LB:g=original	!	!	!	!LO:LB:g=original	!
=13	=13	=13	=13	=13	=13	=13	=13
(4B\	-ra-	2d\	-ra-	2f\	-ra-	2g\	-ra-
4G\)	.	.	.	.	.	.	.
4c\	-mus	4c\	-mus	4e\	-mus	4g\	-mus
=14	=14	=14	=14	=14	=14	=14	=14
4G\	te	4B\	te	4d\	te	4g\	te
4r	.	4r	.	4r	.	4r	.
4G\	glo-	4d\	glo-	4f\	glo-	4b\	glo-
=15	=15	=15	=15	=15	=15	=15	=15
(>4C/	-ri-	(4e\	-ri-	(4g\	-ri-	(4g\	-ri-
4D/)	.	4d\)	.	4f\)	.	4b\)	.
4E\	-fi-	4c\	-fi-	4e\	-fi-	4g\	-fi-
=16	=16	=16	=16	=16	=16	=16	=16
(4F\	-ca-	(4d\	-ca-	(4f\	-ca-	4a\	-ca-
4G\	.	4c\)	.	4e\)	.	2g\	-mus
4GG/)	-mus	4B\	-mus	4d\	-mus	.	.
=17	=17	=17	=17	=17	=17	=17	=17
2C/	te,	2c\	te	2e\	te	2g\	te,
4r	.	4r	.	4r	.	4r	.
=18	=18	=18	=18	=18	=18	=18|!	=18
4.A\	gra-	4.c\	gra-	4.e\	gra-	4.cc\	gra-
8B\	-ti-	8d\	-ti-	8e\	-ti-	8g#X\	-ti-
4c\	-as	4e\	-as	4e\	-as	4a\	-as
!	!	!	!	!LO:LB:g=original	!	!	!
=19	=19	=19	=19	=19	=19	=19	=19
4B\	a-	4d\	a-	4e\	a-	4g#X\	a-
4A\	-gi-	4c\	-gi-	4e\	-gi-	4a\	-gi-
4G#X\	-mus	4B\	-mus	4e\	-mus	4dd\	-mus
!LO:LB:g=original	!	!LO:LB:g=original	!	!	!	!LO:LB:g=original	!
=20	=20	=20	=20	=20	=20	=20	=20
(4A\	ti-	(2c\	ti-	(2e\	ti-	(4cc\	ti-
4F\	.	.	.	.	.	4a\	.
4D#X\)	.	4A\)	.	4f#X\)	.	4cc\)	.
=21	=21	=21	=21	=21	=21	=21	=21
4E\	-bi	4G/	-bi	4e\	-bi	4b\	-bi
4B\	pro-	4G/	pro-	4e\	pro-	4dd\	pro-
4G#X\	-pter	4G/	-pter	4e\	-pter	4b\	-pter
=22	=22	=22	=22	=22	=22	=22	=22
(4A\	ma-	(4c\	ma-	2e\	ma-	(4cc\	ma-
4c\	.	4e\)	.	.	.	4a\)	.
4A\)	-gnam	4c\	-gnam	4e\	-gnam	4cc\	-gnam
=23	=23	=23	=23	=23	=23	=23	=23
4.G#X\	glo-	4.d\	glo-	4.f\	glo-	4.b\	glo-
8G#\	-ri-	8d\	-ri-	8f\	-ri-	8b\	-ri-
4A\	-am	4c\	-am	4e\	-am	4a\	-am
=24	=24	=24	=24	=24	=24	=24	=24
(4D\	tu-	(4d\	tu-	(4f\	tu-	(4b\	tu-
2E\)	.	4c\)	.	2e\)	.	4a\	.
.	.	4B\	.	.	.	4g#X\)	.
!	!	!LO:TX:b:t=V&colon;S&colon;	!	!	!	!	!
!	!	!LO:PB:g=original	!	!LO:LB:g=original	!	!	!
=25	=25	=25	=25	=25	=25	=25	=25
4AA/	-am	4c\	-am	4e\	-am	4a\	-am
4C/	Do-	4e\	Do-	4g\	D-	4gn\	Do-
8BB/	-mi-	8d\	-mi-	8f\	-mi-	8g\	-mi-
8C/	-ne	8c\	-ne	8e\	-ne	8g\	-ne
!	!	!	!	!	!	!LO:LB:g=original	!
=26	=26	=26	=26	=26	=26	=26	=26
4G\	De-	4B\	De-	4d\	De-	4b\	De-
4GG/	-us	4B\	-us	4d\	-us	4dd\	-us
!LO:LB:g=original	!	!	!	!	!	!	!
8G\	Rex	8B\	rex	8d\	rex	8dd\	rex
8G\	ce-	8c\	ce-	8e\	ce-	8cc\	ce-
=27	=27	=27	=27	=27	=27	=27	=27
(4G\	-les-	(4d\	-le-	(4f\	-le-	4b\	-le-
4GG/)	.	4B\)	.	4d\)	.	2g\	-stis
4C/	-tis	4c\	-stis	4e\	-stis	.	.
=28	=28	=28	=28	=28	=28	=28	=28
(4GG/	De-	(4B\	De-	(4d\	De-	(4dd\	De-
4G\)	.	4d\)	.	4f\)	.	4b\)	.
4G\	-us	4c\	-us	4e\	-us	4g\	-us
=29	=29	=29	=29	=29	=29	=29	=29
2G\	pa-	(4B\	pa-	(4d\	pa-	(4g\	pa-
.	.	4d\)	.	4f\)	.	4b\)	.
4c\	-ter	4c\	-ter	4e\	-ter	4g\	-ter
!	!	!	!	!LO:LB:g=original	!	!	!
=30	=30	=30	=30	=30	=30	=30	=30
4F\	om-	(8A\L	om-	(8d\L	om-	4a\	om-
.	.	8d\J)	.	8f\J)	.	.	.
4G\	-ni	4c\	-ni-	4e\	-ni	4g\	-ni-
!	!	!LO:LB:g=original	!	!	!	!	!
4GG/	po-	4B\	-po-	4d\	po-	4g\	-po-
=31	=31	=31	=31	=31	=31	=31	=31
4C/	-tens	4c\	-tens	4e\	-tens	4g\	-tens
(8C/L	Do-	4e\	Do-	4g\	Do-	4cc\	Do-
8E/J)	.	.	.	.	.	.	.
8G\	-mi-	8e\	-mi-	8g\	-mi-	8cc\	-mi-
8E\	-ne	8e\	-ne	8g\	-ne	8cc\	-ne
!LO:LB:g=original	!	!	!	!	!	!LO:LB:g=original	!
=32	=32	=32	=32	=32	=32	=32	=32
4C/	fi-	(4e\	fi-	(4g\	Fi-	(4cc\	fi-
4D/	.	4d\)	.	4f\)	.	4b\)	.
4E\	-li	4c\	-li	4e\	-li	4g\	-li
=33	=33	=33	=33	=33	=33	=33	=33
(4G\	u-	(8B\L	u-	(8d\L	u-	4b\	u-
.	.	8c\J	.	8e\J)	.	.	.
4B\	.	4d\)	.	(4f\	-ni-	2g\	-ni-
4c\)	-ni-	4c\	-ni-	4e\)	.	.	.
=34	=34	=34	=34	=34	=34	=34	=34
8G\	-ge-	8c\	-ge-	8e\	-ge-	8g\	-ge-
8G\	-ni-	8B\	-ni-	8d\	-ni-	8g\	-ni-
4G\	-te.	4B\	-te	4d\	-te	4g\	-te
4r	.	4r	.	4r	.	4r	.
!	!	!	!	!LO:LB:g=original	!	!	!
=35	=35	=35	=35	=35	=35	=35	=35
2G#X\	Je-	2d\	Je-	2f\	Je-	2b\	Je-
4G#\	-su	4d\	-su	4f\	-su	4b\	-su
!	!	!LO:LB:g=original	!	!	!	!	!
=36	=36	=36	=36	=36	=36	=36	=36
(4A\	Je-	(4c\	Je-	(4e\	chri-	(4cc\	Je-
4G#X\)	.	4d\)	.	4f\)	.	4b\)	.
4A\	-su	4c\	-su	4e\	-ste	4a\	-su
=37	=37	=37	=37	=37	=37	=37	=37
(4D\	Chri-	(4d\	Chri-	(4f\	Chri-	(4b\	Chri-
2E\)	.	4c\	.	2e\)	.	4a\	.
.	.	4B\)	.	.	.	4g#X\)	.
!	!	!	!	!	!	!LO:TX:b:t=V&colon;S&colon;	!
!	!	!	!	!	!	!LO:PB:g=original	!
=38	=38	=38	=38	=38	=38	=38	=38
4AA/	-ste	4c\	-ste	4e\	-ste	4a\	-ste
4A\	Do-	4c#X\	Do-	4e\	Do-	4a\	Do-
8G\	-mi-	8c#\	-mi-	8e\	-mi-	8a\	-mi-
8G\	-ne	8c#\	-ne	8e\	-ne	8a\	-ne
!LO:LB:g=original	!	!	!	!	!	!	!
=39	=39	=39	=39	=39	=39	=39	=39
(4F\	De-	(4A\	De-	(4d\	De-	2a\	De-
4E\)	.	4c#X\)	.	4e\)	.	.	.
4D\	-us	4d\	-us	4f\	-us	4a\	-us
=40	=40	=40	=40	=40	=40	=40	=40
(>4C#X/	A-	2e\	A-	2g\	a-	(4a\	a-
4AA/)	.	.	.	.	.	4cc#X\)	.
4D\	-gnus	4d\	-gnus	4f\	-gnus	4a\	-gnus
=41	=41	=41	=41	=41	=41	=41	=41
4A\	De-	4c#X\	De-	4e\	De-	4a\	De-
4AA/	-i	4c#\	-i,	4e\	-i,	4a\	-i
4r	.	4r	.	4r	.	4r	.
!	!	!LO:LB:g=original	!	!LO:LB:g=original	!	!	!
=42	=42	=42	=42	=42	=42	=42	=42
4.C#X/	Fi-	4.e\	fi-	4.g\	fi-	4.b-X\	fi-
8C#/	-li-	8e\	-li	8g\	-li-	8b-\	-li-
4D/	-us	4d\	us	4f\	-us	4a\	-us
=43	=43	=43	=43	=43	=43	=43	=43
(8F\L	pa-	(8f\L	pa-	(8a\L	pa-	(8a\L	pa-
8G\J)	.	8e\J	.	8g\J	.	8b-X\J	.
4A\	.	4d\	.	4f\	.	2a\)	.
4AA/	.	4c#X\)	.	4e\)	.	.	.
!	!	!	!	!	!	!LO:LB:g=original	!
=44	=44	=44	=44	=44	=44	=44	=44
4D\	-tris	4d\	-tris	4f\	-tris	2a\	-tris
4r	.	4r	.	4r	.	.	.
4D\	qui	4d\	qui	4f#X\	qui	4a\	qui
=45	=45	=45	=45	=45	=45	=45	=45
4D\	tol-	4d\	tol-	4f#X\	tol-	4a\	tol-
4C/	-lis	4d\	-lis	4f#\	-lis	4a\	-lis
4C/	pec-	4d\	pec-	4f#\	pec-	4a\	pec-
!LO:LB:g=original	!	!	!	!	!	!	!
=46	=46	=46	=46	=46	=46	=46	=46
!LO:SIC:s:v=BB-	!	!	!	!	!	!	!
(>4BB/	-ca-	(4d\	-ca-	(4g\	-ca-	(4b-X\	-ca-
4AA/)	.	4cn\)	.	4f#X\)	.	4cc\)	.
4GG/	-ta	4B-X\	-ta	4g\	-ta	4dd\	-ta
=47	=47	=47	=47	=47	=47	=47	=47
4D\	mun-	4A\	mun-	4f#X\	mun-	4dd\	mun-
4D\	-di	4A\	-di	4f#\	-di	4dd\	-di
4r	.	4r	.	4r	.	4r	.
!	!	!LO:LB:g=original	!	!LO:LB:g=original	!	!	!
=48	=48	=48	=48	=48	=48	=48	=48
(4D\	mi-	2A\	mi-	(4f#X\	mi-	2cc\	mi-
4F#X\)	.	.	.	4a\)	.	.	.
4D\	-se-	4A\	-se-	4f#\	-se-	4cc\	-se-
=49	=49	=49	=49	=49	=49	=49	=49
(4G\	-re-	(4B-X\	-re-	(4g\	-re-	(4dd\	-re-
4A\)	.	4c\)	.	4f#X\)	.	4cc\)	.
4B-X\	-re	4d\	-re	4g\	-re	4b-X\	-re
!	!	!	!	!	!	!LO:LB:g=original	!
=50	=50	=50	=50	=50	=50	=50	=50
(4c\	no-	(4e-X\	no-	(4a\	no-	(4cc\	no-
4d\	.	2d\)	.	4g\	.	4b-X\	.
4D/)	.	.	.	4f#X\)	.	4a\)	.
=51	=51	=51	=51	=51	=51	=51	=51
4G\	-bis	4d\	-bis	4g\	-bis	4b-X\	-bis
4r	.	4r	.	4r	.	4r	.
4G\	qui	4d\	qui	4g\	qui	4bn\	qui
=52	=52	=52	=52	=52	=52	=52	=52
4Fn\	tol-	4d\	tol-	4g\	tol-	4b\	tol-
4F\	-lis	4d\	-lis	4g\	-lis	4b\	-lis
4F\	pec-	4d\	pec-	4g\	pec-	4b\	pec-
!LO:LB:g=original	!	!	!	!	!	!	!
=53	=53	=53	=53	=53	=53	=53	=53
(8E-X\L	-ca-	(8c\L	-ca-	(8g\L	-ca-	4g\	-ca-
8D\J)	.	8Bn\J)	.	8fn\J)	.	.	.
4C/	-ta	4c\	-ta	4e-X\	-ta	4g\	-ta
8r	.	4r	.	8r	.	8r	.
8C/	pec-	.	.	8e-\	pec-	8g\	pec-
!	!	!LO:LB:g=original	!	!LO:LB:g=original	!	!	!
=54	=54	=54	=54	=54	=54	=54	=54
(>4C/	-ca-	4G/	pe-	(4e-X\	-ca-	2g\	-ca-
4BBn/)	.	4G/	-ca-	4d\)	.	.	.
4C/	-ta	4G/	-ta	4e-\	-ta	4g\	-ta
=55	=55	=55	=55	=55	=55	=55	=55
4G\	mun-	4Bn\	mun-	4d\	mun-	4bn\	mun-
4GG/	-di	4B\	-di	4d\	-di	4b\	-di,
4r	.	4r	.	4r	.	4r	.
!	!	!	!	!	!	!LO:LB:g=original	!
=56	=56	=56	=56	=56	=56	=56	=56
4.A-X\	sus-	4.d\	sus-	4.f\	sus-	4.b\	sus-
8A-\	-ci-	8d\	-ci-	8f\	-ci-	8b\	-ci-
4G\	-pe	4c\	-pe	4e-X\	-pe	4cc\	-pe
=57	=57	=57	=57	=57	=57	=57	=57
2F\	de-	2d\	de-	2a-X\	de-	2b\	de-
4E-X\	-pre-	4c\	-pre-	4g\	-pre-	4cc\	-pre-
=58	=58	=58	=58	=58	=58	=58	=58
2D\	-ca-	2Bn\	-ca-	2f\	-ca-	2g\	-ca-
4C/	-ti-	4G/	-ti-	4e-X\	-ti-	4g\	-ti-
!	!	!LO:LB:g=original	!	!	!	!	!
=59	=59	=59	=59	=59	=59	=59	=59
(4BBn/	-o-	(4A-X\	-o-	2f\	-o-	2dd\	-o-
4A-X\)	.	4Bn\)	.	.	.	.	.
4G\	-nem	4c\	-nem	4e-X\	-nem	4cc\	-nem
!LO:LB:g=original	!	!	!	!LO:LB:g=original	!	!	!
=60	=60	=60	=60	=60	=60	=60	=60
(8E\L	no-	(8c\L	no-	(8g\L	no-	(8g\L	no-
8F\J	.	8A-X\J	.	8f\J	.	8a-X\J	.
4G\	.	4c\	.	4e-X\	.	2g\)	.
4GG/)	.	4Bn\)	.	4d\)	.	.	.
=61	=61	=61	=61	=61	=61	=61	=61
4C/	-stram	4c\	-stram	4e-X\	-stram	4g\	-stram
4r	.	4r	.	4r	.	4r	.
(8C/L	qui	4c\	qui	4e-\	qui	4g\	qui
8E-X/J)	.	.	.	.	.	.	.
!	!	!	!	!	!	!LO:LB:g=original	!
=62	=62	=62	=62	=62	=62	=62	=62
4G\	se-	4Bn\	se-	4d\	se-	4g\	se-
4G\	-des	4B\	-des	4d\	-des	4g\	-des
8r	.	8r	.	8r	.	8r	.
8G\	ad	8B\	ad	8d\	ad	8g\	ad
=63	=63	=63	=63	=63	=63	=63	=63
4.c\	dex-	4.c\	dex-	4.e-X\	dex-	4.g\	dex-
8G\	-te-	8Bn\	-te-	8d\	-te-	8g\	-te-
4C/	-ram	4c\	-ram	4e-\	-ram	4g\	-ram
!	!	!LO:LB:g=original	!	!	!	!	!
=64	=64	=64	=64	=64	=64	=64	=64
(2A-X\	pa-	2.d\	pa-	(2f\	pa-	(2bn\	pa-
4F#X\)	.	.	.	4an\)	.	4cc\)	.
=65	=65	=65	=65	=65	=65	=65	=65
4G\	-tris	4d\	-tris	4g\	-tris	4b\	-tris
4G\	mi-	4d\	mi-	4g\	mi-	4b\	mi-
4G\	-se-	4d\	-se-	4g\	-se-	4b\	-se-
!LO:TX:b:t=V&colon;S&colon;	!	!	!	!	!	!	!
!LO:PB:g=original	!	!	!	!LO:LB:g=original	!	!	!
=66	=66	=66	=66	=66	=66	=66	=66
2A-X\	-re-	2Bn\	-re-	2f\	-re-	2dd\	-re-
4Bn\	-re	4d\	-re	4f\	-re	4g\	-re
=67	=67	=67	=67	=67	=67	=67	=67
4c\	no-	8c\	mi-	(4e-X\	no-	(4g\	no-
.	.	8c\	-se-	.	.	.	.
4G\	.	4d\	-re-	4f\)	.	4bn\	.
4E-X\	.	4c\	-re	4g\	-bis	4g\)	.
!	!	!	!	!	!	!LO:LB:g=original	!
=68	=68	=68	=68	=68	=68	=68	=68
4F\	.	(4c\	no-	(4a-X\	no-	4cc\	.
4G\	.	2d\)	.	2g\)	.	2g\	.
4GG/	.	.	.	.	.	.	.
=69	=69	=69	=69	=69	=69	=69	=69
2.C/	-bis	2.en\	-bis.	2.g\	-bis.	2.g\	-bis,
!	!	!	!	!LO:TX:b:t=Seque Quoniam. V&colon;S&colon;	!	!	!
!	!	!LO:LB:g=original	!	!LO:PB:g=original	!	!	!
=70|!	=70|!	=70|!	=70|!	=70|!	=70|!	=70|!	=70|!
*M4/4	*	*M4/4	*	*M4/4	*	*M4/4	*
*met(c)	*	*met(c)	*	*met(c)	*	*met(c)	*
4.c\	Quo-	4.G/	Quo-	4.en\	Quo-	4.cc\	Quo-
8G\	-ni-	8Bn\	-ni-	8f\	-ni-	8dd\	-ni-
4E\	-am	4c\	-am	4g\	-am	4ee\	-am
4D\	tu	4B\	tu	4g\	tu	4ff\	tu
=71	=71	=71	=71	=71	=71	=71	=71
(4C/	so-	(8c\L	so-	(8g\L	so-	8ee\L	so-
.	.	[8B\J)	.	8f\)	.	8dd\	.
4GG/)	.	(8B\L]	.	(8f\	.	8dd\	.
.	.	8G\J)	.	8e\J)	.	8cc\J	.
4C/	-lus	4G/	-lus	4e\	-lus	4cc\	-lus
4C/	tu	4c\	tu	4g\	tu	4ee\	tu
!LO:LB:g=original	!	!	!	!	!	!	!
=72	=72	=72	=72	=72	=72	=72	=72
2C/	so-	2c\	so-	(4g\	so-	(4ee\	so-
.	.	.	.	8a\L	.	8ff\L	.
.	.	.	.	8g\J)	.	8ee\J)	.
(4F\	-lus	2A\	-lus	(4f\	-lus	(4dd\	-lus
4F#X\)	.	.	.	4e\)	.	4cc\)	.
!	!	!	!	!	!	!LO:LB:g=original	!
=73	=73	=73	=73	=73	=73	=73	=73
4G\	san-	4G/	san-	4e\	san-	4cc\	san-
4GG/	-ctus	4G/	-ctus	4d\	-ctus	4b\	-ctus
4r	.	4r	.	4r	.	4r	.
4G\	tu	(8B\L	tu	(8d\L	tu	(8dd\L	tu
.	.	8c\J)	.	8e\J)	.	8cc\J)	.
!	!	!LO:LB:g=original	!	!	!	!	!
=74	=74	=74	=74	=74	=74	=74	=74
4G\	so-	4d\	so-	4f\	so-	4b\	so-
4G\	-lus	4d\	-lus	4f\	-lus	4b\	-lus
!	!	!	!	!LO:LB:g=original	!	!	!
4G\	Do-	(8d\L	Do-	(8f\L	Do-	4b\	Do-
.	.	8f\J)	.	8a\J)	.	.	.
4GG/	-mi-	(8e\L	-mi-	(8g\L	-mi-	4b\	-mi-
.	.	8d\J)	.	8f\J)	.	.	.
=75	=75	=75	=75	=75	=75	=75	=75
2C/	-nus	2c\	-nus	2e\	-nus	2g\	-nus
4r	.	4r	.	4r	.	4r	.
4C/	tu	4c\	tu	4e\	tu	4g\	tu
=76	=76	=76	=76	=76	=76	=76	=76
2G\	so-	(4.B\	so-	(4.d\	so-	2g\	so-
.	.	8c\)	.	8e\)	.	.	.
4G\	-lus	4d\	-lus	4f\	-lus	4b\	-lus
4G\	al-	4d\	al-	4f\	al-	4b\	al-
=77	=77	=77	=77	=77	=77	=77	=77
4c\	-tis-	(8c\L	-tis-	(8e\L	-tis-	(8cc\L	-ti-
.	.	8d\J)	.	8f\J)	.	8b\J)	.
4G\	-si-	(8d\L	-si-	(8f\L	-si-	(8b\L	-si-
.	.	8e\J)	.	8g\J)	.	8cc\J)	.
2C/	-mus	2e\	-mus	2g\	-mus	2cc\	-mus
!LO:LB:g=original	!	!LO:LB:g=original	!	!	!	!LO:LB:g=original	!
=78	=78	=78	=78	=78	=78	=78	=78
4F\	Je-	4f\	Je-	4a\	Je-	4cc\	Je-
4F\	-su	(8e\L	-su	(8g\L	-su	4a\	-su
.	.	8d\J)	.	8f\J)	.	.	.
(4G\	Chri-	(4c\	Chri-	(4e\	Chri-	2g\	Chri-
4GG/)	.	4B\)	.	4d\)	.	.	.
=79	=79	=79	=79	=79	=79	=79	=79
2C/	-ste	2c\	-ste	2e\	-ste	2g\	-ste
4r	.	4r	.	4r	.	4r	.
4C/	cum	4e\	cum	4g\	Cum	4cc\	Cum
!	!	!	!	!LO:LB:g=original	!	!	!
=80	=80	=80	=80	=80	=80	=80	=80
(4C/	san-	2e\	san-	2g\	San-	2cc\	san-
4E/)	.	.	.	.	.	.	.
(4G\	-cto	2d\	-cto	2f\	-cto	2b\	-cto
4GG/)	.	.	.	.	.	.	.
=81	=81	=81	=81	=81	=81	=81	=81
4C/	Spi-	4c\	spi-	4e\	spi-	4g\	spi-
4C/	-ri-	4e\	-ri-	4g\	-ri-	4g\	-ri-
4BB/	-tu	4d\	-tu	4f\	-tu	4g\	-tu
4C/	in	4c\	in	4e\	in	4g\	in
=82	=82	=82	=82	=82	=82	=82	=82
4GG/	glo-	4B\	glo-	4d\	glo-	4g\	glo-
8G\	-ri-	8B\	-ri-	8d\	-ri-	8g\	-ri-
8G\	-a	8c\	-a	8e\	-a	8g\	-a
4G\	De-	(8e\L	De-	(8g\L	De-	4g\	De-
.	.	8d\J)	.	8f\J)	.	.	.
4GG/	-i	(8c\L	-i	(8e\L	-i	4g\	-i
.	.	8B\J)	.	8d\J)	.	.	.
!LO:LB:g=original	!	!LO:LB:g=original	!	!	!	!LO:LB:g=original	!
=83	=83	=83	=83	=83	=83	=83	=83
(>4C/	pa-	4c\	pa-	(4e\	pa-	2.g\	pa-
4BB/)	.	4d\	.	4f\)	.	.	.
(4C/	-tris	4e\	.	(8a\L	-tris	.	.
.	.	.	.	8g\	.	.	.
4F\)	.	(8d\L	-tris	8f\	.	4g\	-tris
.	.	8c\J)	.	8e\J)	.	.	.
=84	=84	=84	=84	=84	=84	=84	=84
4G\	a-	4c\	a-	4e\	a-	4g\	a-
4GG/	-men	4B\	-men	4d\	-men.	4g\	-men
2r	.	2r	.	2r	.	2r	.
!	!	!	!	!LO:LB:g=original	!	!	!
=85	=85	=85	=85	=85	=85	=85	=85
(1G\	a-	(4B\	a-	(4d\	a-	2g\	a-
.	.	4c\)	.	4e\)	.	.	.
.	.	(8e\L	-men	(8g\L	-men	2b\	.
.	.	8d\	.	8f\	.	.	.
.	.	8c\	.	8e\	.	.	.
.	.	8B\J)	.	8d\J)	.	.	.
=86	=86	=86	=86	=86	=86	=86	=86
4E\	.	(4c\	a-	(4e\	a-	4cc\	.
4D\)	.	4d\)	.	4f\)	.	4b\	.
(4C/	-men	(4e\	-men	(4g\	-men	4g\	.
4BB/)	.	4f\)	.	4a\)	.	4dd\	-men
=87	=87	=87	=87	=87	=87	=87	=87
(4C\	a-	(2e\	a-	(2g\	a-	(2cc\	a-
4E\	.	.	.	.	.	.	.
4G\	.	2d\)	.	2f\)	.	2b\)	.
4GG/)	.	.	.	.	.	.	.
=88	=88	=88	=88	=88	=88	=88	=88
2C/	-men	2c\	-men	2e\	-men	2g\	-men
2GG/	a-	2d\	a-	2f\	a-	2g\	a-
=89	=89	=89	=89	=89	=89	=89	=89
1C/	-men.	1c\	-men.	1e\	-men.	1g\	-men.
==	==	==	==	==	==	==	==
*-	*-	*-	*-	*-	*-	*-	*-
!!!system-decoration: [(s1,s2,s3,s4)]
!!!RDF**kern: > = above
!!!RDF**kern: < = below
!!!EED: Leszek Kubiak
!!!EST: 2021-02-08
!!!ENC: Marcin Jachim
!!!END: 2021-01-28
